!!!COM: Berg, Alban (Maria Johannes)
!!!OTL: Der Wein (The Wine) for Solo Soprano and Orchestra
!!!OMV:
!!!example: 452
!!!work: Ber-14
**kern	**kern	**dynam	**kern	**dynam	**kern	**dynam	**kern	**dynam	**kern	**dynam	**kern	**dynam	**kern	**dynam	**kern	**dynam	**kern	**dynam
*part11	*part9	*part9	*part8	*part8	*part7	*part7	*part6	*part6	*part5	*part5	*part4	*part4	*part3	*part3	*part2	*part2	*part1	*part1
*staff11	*staff9	*	*staff8	*	*staff7	*	*staff6	*	*staff5	*	*staff4	*	*staff3	*	*staff2	*	*staff1	*
*I"Violoncello	*I"Violin II	*	*I"Violin II	*	*I"Violin I	*	*I"Choir	*	*I"Treble Solo	*	*I"Trumpet in F	*	*I"Clarinet in Bb	*	*I"Flute	*	*I"Flute	*
*I'Vc.	*I'Vln. II	*	*I'Vln. II	*	*I'Vln. I	*	*I'Choir	*	*I'Tr. Solo	*	*I'F Tpt.	*	*I'Cl.	*	*I'Fl.	*	*I'Fl.	*
*clefC4	*clefG2	*	*clefG2	*	*clefG2	*	*clefG2	*	*clefG2	*	*clefG2	*	*clefG2	*	*clefG2	*	*clefG2	*
*k[]	*k[]	*	*k[]	*	*k[]	*	*k[]	*	*k[]	*	*k[]	*	*k[]	*	*k[]	*	*k[]	*
*	*	*	*	*	*	*	*	*	*	*	*	*	*	*	*	*	*	*
*M3/4	*M3/4	*	*M3/4	*	*M3/4	*	*M3/4	*	*M3/4	*	*M3/4	*	*M3/4	*	*M3/4	*	*M3/4	*
*MM121	*MM121	*	*MM121	*	*MM121	*	*MM121	*	*MM121	*	*MM121	*	*MM121	*	*MM121	*	*MM121	*
=114	=114	=114	=114	=114	=114	=114	=114	=114	=114	=114	=114	=114	=114	=114	=114	=114	=114	=114
8g	2.r	.	[2.bn	pp	[2.gg	>]	2.r	.	4r	.	12r	.	(12e-XL	>	2.r	.	([2.bb-X	< pp [[
.	.	.	.	.	.	.	.	.	.	.	[6ddn	< pp	12fn	.	.	.	.	.
8r	.	.	.	.	.	.	.	.	.	.	.	.	.	.	.	.	.	.
.	.	.	.	.	.	.	.	.	.	.	.	.	12g-XJ	.	.	.	.	.
4r	.	.	.	.	.	.	.	.	12r	.	12dd	.	12a-XL	.	.	.	.	.
.	.	.	.	.	.	.	.	.	12r	.	12r	[	12g-	p	.	.	.	.
.	.	.	.	.	.	.	.	.	[12ddn	p	[12ddn	.	12a-J	]	.	.	.	.
4r	.	.	.	.	.	.	.	.	4dd	.	4dd	<	12g-L	.	.	.	.	.
.	.	.	.	.	.	.	.	.	.	.	.	.	12a-	.	.	.	.	.
.	.	.	.	.	.	.	.	.	.	.	.	.	12g-J	.	.	.	.	.
=115	=115	=115	=115	=115	=115	=115	=115	=115	=115	=115	=115	=115	=115	=115	=115	=115	=115	=115
2.r	2.r	.	4b_	.	12ggL]	.	[4ee-X	p	[4ee-X	.	2ee-X	p	2fn	<	2.r	.	2bb-]	.
.	.	.	.	.	(12Gn	.	.	.	.	.	.	.	.	.	.	.	.	.
.	.	.	.	.	12A-XJ	.	.	.	.	.	.	.	.	.	.	.	.	.
.	.	.	12b]	.	12B-XL	.	12ee-]	.	12ee-]	.	.	.	.	.	.	.	.	.
.	.	.	[6bn	.	12cn	.	[6bn	.	[6bn	.	.	.	.	.	.	.	.	.
.	.	.	.	.	12d-XJ	.	.	.	.	.	.	.	.	.	.	.	.	.
.	.	.	4r	.	12anL	.	6b	.	6b	.	[4gn	[ >	4en)	[ > ]]	.	.	4dd-X)	>]
.	.	.	.	.	12bn	.	.	.	.	.	.	.	.	.	.	.	.	.
.	.	.	.	.	12aJ	.	[12gn	.	[12gn	.	.	.	.	.	.	.	.	.
=116	=116	=116	=116	=116	=116	=116	=116	=116	=116	=116	=116	=116	=116	=116	=116	=116	=116	=116
2.r	2.r	.	2.r	.	12ee-XL	.	4g	.	4g	.	4g]	]	2.r	.	(2ffn	< p	(2bb-X	< p
.	.	.	.	.	12ddn	.	.	.	.	.	.	.	.	.	.	.	.	.
.	.	.	.	.	12ee-J	.	.	.	.	.	.	.	.	.	.	.	.	.
.	.	.	.	.	12ddL	.	[4a-X	.	[4a-X	.	[4a-X	.	.	.	.	.	.	.
.	.	.	.	.	12bn	.	.	.	.	.	.	.	.	.	.	.	.	.
.	.	.	.	.	12f#XJ	.	.	.	.	.	.	.	.	.	.	.	.	.
.	.	.	.	.	12d#XL	.	12a-]	.	12a-]	.	12a-]	.	.	.	4g-X)	[ > ]]	4dd-X)	[ > ]]
.	.	.	.	.	12cn	.	[6an	.	[6an	.	6an	.	.	.	.	.	.	.
.	.	.	.	.	12BnJ	.	.	.	.	.	.	.	.	.	.	.	.	.
=117	=117	=117	=117	=117	=117	=117	=117	=117	=117	=117	=117	=117	=117	=117	=117	=117	=117	=117
2.r	2.r	.	2.r	.	12cnL	.	6a	.	6a	.	6a	.	(4g	p	4een	<	4bb-X	<
.	.	.	.	.	12dn	.	.	.	.	.	.	.	.	.	.	.	.	.
.	.	.	.	.	12cJ	.	[12b-X	.	[12b-X	.	[12b-X	.	.	.	.	.	.	.
.	.	.	.	.	12dL	.	4b-	.	4b-	.	4b-	.	8.e)	.	8.a-X	[ >	8.dd-X	[ >
.	.	.	.	.	12c	.	.	.	.	.	.	.	.	.	.	.	.	.
.	.	.	.	.	12enJ	.	.	.	.	.	.	.	.	.	.	.	.	.
.	.	.	.	.	.	.	.	.	.	.	.	.	16r	.	16r	]	16r	]
.	.	.	.	.	12fnL	.	[4ccn	.	[4ccn	.	[4ccn	.	(4gn	<[	(4b-X	<[	(4cc	< > ]]
.	.	.	.	.	12dn	.	.	.	.	.	.	.	.	.	.	.	.	.
.	.	.	.	.	12e-XJ	.	.	.	.	.	.	.	.	.	.	.	.	.
=118	=118	=118	=118	=118	=118	=118	=118	=118	=118	=118	=118	=118	=118	=118	=118	=118	=118	=118
!	!LO:TX:t=pizz.	!	!LO:TX:t=pizz.	!	!	!	!	!	!	!	!	!	!	!	!	!	!	!
2.r	8bn`L	> mp	8dd#X`L	> mp	8ee-X)	.	12cc]	.	12cc]	.	12ccn]	.	12f#XL	>	8bn)	.	2.aan)	] < [[
.	.	.	.	.	.	.	[6ddn	.	[6ddn	.	12r	.	12fn	.	.	.	.	.
.	8b-X`J	.	8ddn`J	.	8r	.	.	.	.	.	.	.	.	.	8r	.	.	.
.	.	.	.	.	.	.	.	.	.	.	12r	.	12gnJ	.	.	.	.	.
.	8ddn`L	.	8ff#X`L	.	4r	.	6dd	.	6dd	.	4r	.	12a-XL	] p	4r	.	.	.
.	.	.	.	.	.	.	.	.	.	.	.	.	12b-X	.	.	.	.	.
.	8an`J	.	8een`J	.	.	.	.	.	.	.	.	.	.	.	.	.	.	.
.	.	.	.	.	.	.	[12een	.	[12een	.	.	.	12ccnJ	.	.	.	.	.
.	8bn`L	.	8gg#X`L	.	(4aan	< ppp [[	4ee	.	4ee	.	4r	.	12cc#XL	>	4r	.	.	.
.	.	.	.	.	.	.	.	.	.	.	.	.	12ee	.	.	.	.	.
.	8een`J	]	8ggn`J	]	.	.	.	.	.	.	.	.	.	.	.	.	.	.
.	.	.	.	.	.	.	.	.	.	.	.	.	12bbnJ	]]	.	.	.	.
=119	=119	=119	=119	=119	=119	=119	=119	=119	=119	=119	=119	=119	=119	=119	=119	=119	=119	=119
2.r	([4ddd	< pp	([4fffn	< pp	2ggg#X	< pp	[4ffn	.	[4ffn	.	8r	.	8dddn)	.	12r	.	4r	> ]
.	.	.	.	.	.	.	.	.	.	.	.	.	.	.	(12ggnL	pp	.	.
.	.	.	.	.	.	.	.	.	.	.	([8ffn	.	8r	.	.	.	.	.
.	.	.	.	.	.	.	.	.	.	.	.	.	.	.	12aanJ	.	.	.
.	12dddL]	[	12fffL]	[	.	.	12ff]	.	12ff]	.	12ff]	.	4r	.	12bb-XL	.	4r	.
.	12ccc#X	.	12eeen	.	.	.	[6een	.	[6een	.	[6een	.	.	.	12aan	.	.	.
.	12ggnJ	>	12cccnJ	>	.	.	.	.	.	.	.	.	.	.	12bb-XJ	.	.	.
.	8ff#X)	.	8bbn)	.	4bbn)	[ > ]]	6ee	.	6ee	.	12eeL	.	4r	.	12aan')	.	12r	.
.	.	.	.	.	.	.	.	.	.	.	12ee-X	.	.	.	12r	.	(12anL	p
.	8r	]	8r	]	.	.	.	.	.	.	.	.	.	.	.	.	.	.
.	.	.	.	.	.	.	[12ddn	.	[12ddn	.	12ddnJ)	.	.	.	12r	.	12b-XJ	.
=120	=120	=120	=120	=120	=120	=120	=120	=120	=120	=120	=120	=120	=120	=120	=120	=120	=120	=120
2.r	(2gg#X	<	(2ddd#X	<	(2ggg#X	<	4dd	.	4dd	.	4ddn	.	2.r	.	2.r	.	12ccnL	.
.	.	.	.	.	.	.	.	.	.	.	.	.	.	.	.	.	12bn	.
.	.	.	.	.	.	.	.	.	.	.	.	.	.	.	.	.	12anJ	.
.	.	.	.	.	.	.	[4cc	.	[4cc	.	4ccn	.	.	.	.	.	12gnL	.
.	.	.	.	.	.	.	.	.	.	.	.	.	.	.	.	.	12f#X	.
.	.	.	.	.	.	.	.	.	.	.	.	.	.	.	.	.	12enJ	.
.	4gn	[ > ]]	4ffn)	[ > ]]	4bbn)	[ > ]]	12cc]	.	12cc]	.	12r	.	.	.	.	.	12dnL	.
.	.	.	.	.	.	.	[6b-X	.	[6b-X	.	([6b-X	.	.	.	.	.	12c#X	.
.	.	.	.	.	.	.	.	.	.	.	.	.	.	.	.	.	12dnJ	.
=121	=121	=121	=121	=121	=121	=121	=121	=121	=121	=121	=121	=121	=121	=121	=121	=121	=121	=121
2.r	8g)	.	12ff#XL	.	(4cccn	<	6b-	.	6b-	.	12b-L	.	12r	.	2.r	.	8e-X)	.
.	.	.	12een	.	.	.	.	.	.	.	12bn	.	12r	.	.	.	.	.
.	8r	.	.	.	.	.	.	.	.	.	.	.	.	.	.	.	8r	.
.	.	.	12ddnJ	.	.	.	[12a-X	.	[12a-X	.	12anJ	.	(12e	p	.	.	.	.
.	4r	.	[4cc	.	8.dddn)	[ >	4a-	.	4a-	.	4a-X	.	12f#XL	.	.	.	4r	.
.	.	.	.	.	.	.	.	.	.	.	.	.	12en	.	.	.	.	.
.	.	.	.	.	.	.	.	.	.	.	.	.	12d#XJ	.	.	.	.	.
.	.	.	.	.	16r	]	.	.	.	.	.	.	.	.	.	.	.	.
.	4r	.	12ccL]	.	[4eeen	<[	[4gn	.	[4gn	.	[4gn)	.	12c#XL	.	.	.	4r	.
.	.	.	12ddn	.	.	.	.	.	.	.	.	.	12cn	.	.	.	.	.
.	.	.	12ee-XJ	.	.	.	.	.	.	.	.	.	12B-XJ)	.	.	.	.	.
=	=	=	=	=	=	=	=	=	=	=	=	=	=	=	=	=	=	=
*-	*-	*-	*-	*-	*-	*-	*-	*-	*-	*-	*-	*-	*-	*-	*-	*-	*-	*-
!!!system-decoration: [(s1,s2,s3)]s4[(s5,s6)][(s7,s8,s9,s10,s11)]
!!!CDT: 1885/02/09-1935/12/24
!!!CBL: Vienna, Austria
!!!CDL: Vienna, Austria
!!!CNT: Austrian
!!!AGN: Vocal; Solo
!!!MCN: Scherchen, Hermann
!!!MDT: 1930/06/04
!!!MGN: unknown
!!!MLC: Königsberg, Prussia (Kaliningrad, Russia)
!!!MPD: 1930
!!!MPN: unknown
!!!ODT: 1929
!!!PDT: 1966
!!!excerpt-start-measure: 114
!!!excerpt-end-measure: 121
!!!excerpt-start-time: 7:28
!!!excerpt-end-time: 7:41
!!!EEV: 2020/01/22
!!!ONB: Converted from MusicXML on 2020/01/22
